X:1
T:Title
%%score { ( 1 3 ) | ( 2 4 ) }
L:1/8
Q:1/4=100
M:4/4
K:Eb
V:1 treble nm="Grand Piano"
V:3 treble 
V:2 bass 
V:4 bass 
V:1
 G4 F2 E2 | A4 G4 | F2 G2 E2 F2 | D8 | E4 F2 G2 | c2 B2 G2 E2 | F4 c4 | [DB]8 | G4 F2 E2 | A4 G4 | %10
w: Sir~Arthur~Sullivan * *||||||||||
 F2 G2 E2 F2 | D8 | [B,E]4 [A,A]2 [B,G]2 | [CF]2 [Ec]2 [EB]2 [A,E]2 | G6 z2 | [G,E]8 |] %16
w: ||||||
V:2
 [E,B,E]4 [A,B,D]2 [G,B,]2 | [F,B,D]4 [E,B,E]4 | [D,B,]2 [E,B,E]2 [C,B,]2 [F,=A,C]2 | [B,,F,B,]8 | %4
 [G,B,]4 [F,B,D]2 [E,B,E]2 | [A,E]2 [G,B,E]2 [E,B,E]2 [G,B,]2 | [F,B,D]4 [F,=A,E]4 | [B,,B,]8 | %8
 [E,B,E]4 [A,B,D]2 [G,B,]2 | [F,B,D]4 [E,B,E]4 | [D,B,]2 [E,B,E]2 [C,B,]2 [F,=A,C]2 | [B,,F,B,]8 | %12
 [G,,E,]4 [C,E,]2 [B,,E,]2 | [A,,E,]2 [A,,F,]2 [G,,G,]2 C,2 | B,,4 z2 F2 | E,8 |] %16
V:3
 x8 | x8 | x8 | x8 | x8 | x8 | x8 | x8 | x8 | x8 | x8 | x8 | x8 | x8 | [B,E]4 [A,D]4 | x8 |] %16
V:4
 x8 | x8 | x8 | x8 | x8 | x8 | x8 | x8 | x8 | x8 | x8 | x8 | x8 | x8 | z4 B,,4 | x8 |] %16

